X:639
T: WIE HEISST DENN NUN DAS ERSTE GEBOT
N: E2008
O: Europa, Mitteleuropa, Deutschland
R: geistliches Lied
M: 4/4
L: 1/8
K: F
C2 | F2F2E2G2 | D2DDC2
C2 | D2D2F2C2 | F4z2
C2 | F2F2E2G2 | D2DDC2
C2 | D2D2F2C2 | F4z2
FA | c4A2c2 | B4G2B2 |
A4F2A2 | G3FE2D2 | C4
B4 | AGF2G2EE | F4z2

@@@ Tune index: 5323
